X: 0962
M: 4/4
L: 1/8
K: D
d2A>A e2A>A | f2f>g a2a>g | f2f2 e2e2 | f>ga>f d2A>A |\
d2A>A e2A>A | f2f>g a2a>g | f2f2 e>de>f | d2d>d d2 :|
|: f>f |\
a2f>f a2f>f | a>gb>a g2e>e | g2e>e g2e>e | g>fa>f d2e>e |\
f2a>a bagf | e2e>e e2A>A |
d2A>A e2A>A | f2f>g a2a>g | f2f2 e>de>f | d2d>d d2zb |\
a2d>d d2zb | a2d>d d2zb | (3aga (3bag f2e2 | d2d>d d2 :|



